src/android-desktop.svg

<?xml version="1.0" encoding="utf-8"?>
<!-- Generated by IcoMoon.io -->
<!DOCTYPE svg PUBLIC "-//W3C//DTD SVG 1.1//EN" "http://www.w3.org/Graphics/SVG/1.1/DTD/svg11.dtd">
<svg version="1.1" xmlns="http://www.w3.org/2000/svg" xmlns:xlink="http://www.w3.org/1999/xlink" width="512" height="512" viewBox="0 0 512 512">
<path fill="#000000" d="M437.333 32h-362.666c-23.469 0-42.667 19.197-42.667 42.666v282.667c0 23.469 19.198 42.667 42.667 42.667h138.666l-42.666 48v32h170.666v-32l-42.666-48h138.666c23.469 0 42.667-19.198 42.667-42.667v-282.667c0-23.469-19.198-42.666-42.667-42.666zM437.333 320h-362.666v-245.334h362.666v245.334z"></path>
</svg>

<?xml version="1.0" encoding="utf-8"?>
<!-- Generator: Adobe Illustrator 16.2.1, SVG Export Plug-In . SVG Version: 6.00 Build 0)  -->
<!DOCTYPE svg PUBLIC "-//W3C//DTD SVG 1.1//EN" "http://www.w3.org/Graphics/SVG/1.1/DTD/svg11.dtd">
<svg version="1.1" id="Layer_1" xmlns="http://www.w3.org/2000/svg" xmlns:xlink="http://www.w3.org/1999/xlink" x="0px" y="0px"
	 width="512px" height="512px" viewBox="0 0 512 512" enable-background="new 0 0 512 512" xml:space="preserve">
<g id="Icon_28_">
	<g>
		<path d="M437.333,32H74.667C51.198,32,32,51.197,32,74.666v282.667C32,380.802,51.198,400,74.667,400h138.666l-42.666,48v32
			h170.666v-32l-42.666-48h138.666C460.802,400,480,380.802,480,357.333V74.666C480,51.197,460.802,32,437.333,32z M437.333,320
			H74.667V74.666h362.666V320z"/>
	</g>
</g>
</svg>
